X:775
T:Orkney
R:Reel
B:The Athole Collection
M:C|
L:1/8
K:D
A,|DDFE D2DB,|A,2 A,F EDEF|DDFE D2DB,|A,A,A,B, D2D:|
|:B|ddfe d2dB|A2Af edef|1 ddfe d2dB|AFAB d2d:|2 afge fdec|
dBAF EDEF||

